X: 2983
T:Denis Langtou's
M:C|
L:1/8
R:reel
K:D
D2A,D B,DA,B,|D/2D/2D dA GFEF|D~F3 Adfe|d~B3 BdAF|
!D2A,D B,DA,B,|D/2D/2D dA GFEF|DFBF A~F3|1~E3F DEFE:|2~E3F D~f3|
!:fedA FAdf|eA A/2A/2A e^def|fedA FddB-|~B2AD FEEf|
!fedA FAdf|eA A/2A/2A e^def|gfed fedB|1ABdf ~f2df:|2ABde fedA||
